X:1
T: Box the Monkey
M:6/8
L:1/8
R:Jig
N:A version of "Munster Buttermilk"
B:James Goodman music manuscript collection, mid-19th century,
B:County Cork
Z:AK/Fiddler's Companion
K:D
d2e fdB|d2 e fdB|AFE EFE|AFE EFE|
d2e fdB|d2e fdB|AFE DED|AFE DED:|
|:BcB BAF|B2c d2B|AFE EFE|AFE E2A|
B/c/Bc BAF|ABc d2B|AFD DED|1 AFD DED:|2 AFD D2||
e|g3f3|e2c d2B|AFE EFE|AFE E2f|
g/a/ge f/g/fd|e/f/ec d2B|AFD DED|AFD D2:|
|:F|G3 F3|EFE d2B|AFE EFE|AFE E2F|
G/A/BG F/G/AF|E/F/GE d2B|AFD DED|AFD D2-:|D||

